src/assets/images/Union.svg

<svg width="9" height="9" viewBox="0 0 9 9" fill="none" xmlns="http://www.w3.org/2000/svg">
<path d="M8.65332 8.4543C8.65332 8.56475 8.56378 8.6543 8.45332 8.6543H7.45391C7.34345 8.6543 7.25391 8.56475 7.25391 8.4543V2.87347C7.25391 2.69529 7.03848 2.60605 6.91249 2.73205L1.2049 8.43963C1.12679 8.51774 1.00016 8.51774 0.922055 8.43963L0.214664 7.73224C0.136559 7.65414 0.136559 7.5275 0.214664 7.4494L5.92225 1.74181C6.04824 1.61582 5.95901 1.40039 5.78083 1.40039H0.2C0.089543 1.40039 0 1.31085 0 1.20039V0.2C0 0.0895431 0.089543 0 0.2 0H8.45332C8.56378 0 8.65332 0.0895431 8.65332 0.2V8.4543Z" fill="white"/>
</svg>

<svg xmlns="http://www.w3.org/2000/svg" width="9" height="9" fill="none" viewBox="0 0 9 9"><path fill="#fff" d="M8.653 8.454a.2.2 0 0 1-.2.2h-1a.2.2 0 0 1-.2-.2v-5.58a.2.2 0 0 0-.34-.142L1.204 8.44a.2.2 0 0 1-.283 0l-.707-.708a.2.2 0 0 1 0-.283l5.707-5.707a.2.2 0 0 0-.141-.342H.2a.2.2 0 0 1-.2-.2v-1C0 .09.09 0 .2 0h8.253c.11 0 .2.09.2.2z"/></svg>
